resources/icons/20px/microphone.svg

<svg width="20" height="20" viewBox="0 0 20 20" fill="none" xmlns="http://www.w3.org/2000/svg">
<path fill-rule="evenodd" clip-rule="evenodd" d="M10 0C7.79086 0 6 1.79086 6 4V9C6 11.2091 7.79086 13 10 13C12.2091 13 14 11.2091 14 9V4C14 1.79086 12.2091 0 10 0ZM4 7C4.55228 7 5 7.44772 5 8V9C5 11.7614 7.23858 14 10 14C12.7614 14 15 11.7614 15 9V8C15 7.44772 15.4477 7 16 7C16.5523 7 17 7.44772 17 8V9C17 12.5265 14.3923 15.4439 11 15.9291V18H12C12.5523 18 13 18.4477 13 19C13 19.5523 12.5523 20 12 20H8C7.44772 20 7 19.5523 7 19C7 18.4477 7.44772 18 8 18H9V15.9291C5.60771 15.4439 3 12.5265 3 9V8C3 7.44772 3.44772 7 4 7Z" fill="#000000"/>
</svg>

<svg xmlns="http://www.w3.org/2000/svg" viewBox="0 0 20 20">
  <path d="M10 0a4 4 0 0 0-4 4v5a4 4 0 0 0 8 0V4a4 4 0 0 0-4-4M4 7a1 1 0 0 1 1 1v1a5 5 0 0 0 10 0V8a1 1 0 1 1 2 0v1a7 7 0 0 1-6 6.93V18h1a1 1 0 1 1 0 2H8a1 1 0 1 1 0-2h1v-2.07A7 7 0 0 1 3 9V8a1 1 0 0 1 1-1"/>
</svg>
